X: 28
T:Pavane d'Angleterre
R:Pavane
C:Claude Gervaise
H:
<end>
<start>
XV eme siecle
O:France
Z:S. Piron
Z:Transcrit et/ou corrig? par Michel BELLON - 2007-08-15
Z:Pour toute observation mailto:galouvielle@free.fr
M:4/4
L:1/4
Q:1/4=120
K:Fmaj
A2AA|A2Ac|BAGG|A4:|
|:c2BB|A>GAA|GFEE|D4:|
|:A2FG|E3A|GAFG|E3A|GFEE|D3A|GFEE|D4:|
<end>
<start>
